static/img/device/component-device-screws6.svg

<svg xmlns="http://www.w3.org/2000/svg" width="88" height="53" fill="none" viewBox="0 0 88 53"><g clip-path="url(#a)"><path fill="#fff" d="M54.09 2.08S66.7-1.97 84.37 3.49l-.24 3.08-9.39 8.86-1.89 24.67s-6.85 2.17-11.02-.85l.67-24.36-8.56-9.82.14-3z"/><path stroke="#b3b3b3" stroke-linecap="round" stroke-linejoin="round" stroke-width=".48" d="m71.49 15.59 4.5-8.62M64.36 15.28l-4.98-8.69"/><path stroke="#999" stroke-linecap="round" stroke-linejoin="round" stroke-width=".68" d="M61.76 24.58c.69-5.39 11.06-6.21 13.39-4.24M61.52 31.07c.68-5.35 10.98-6.16 13.29-4.21M61.28 37.56c.68-5.32 10.9-6.12 13.2-4.18"/><path stroke="#000" stroke-linecap="round" stroke-linejoin="round" stroke-width=".48" d="M62.57 17.2c.06-1.49 12.05-.71 12 .5"/><path stroke="#000" stroke-linecap="round" stroke-linejoin="round" stroke-width=".85" d="M61.86 38.89c.06-1.49 11.09-.36 11.04.85M61.83 39.26c-.16 1.48 10.91 2.05 11.04.85"/><path stroke="#000" stroke-linecap="round" stroke-linejoin="round" stroke-width=".44" d="M55.17 5.05c.15-3.48 28.07-1.66 27.95 1.17"/><path stroke="#000" stroke-linecap="round" stroke-linejoin="round" stroke-width=".85" d="m72.89 39.63 1.86-24.19 9.59-9.08.11-2.58C84.58.7 54.22-1.28 54.06 2.5l-.11 2.58 8.8 9.86-.93 23.84"/><path fill="#fff" d="M27.24 4.74s12.26-5 30.3-.91v3.09l-8.68 9.56v24.74s-6.66 2.69-11.06 0l-1.19-24.34-9.28-9.14z"/><path stroke="#b3b3b3" stroke-linecap="round" stroke-linejoin="round" stroke-width=".48" d="m45.63 16.88 3.82-8.94M38.49 17.12l-5.63-8.28"/><path stroke="#999" stroke-linecap="round" stroke-linejoin="round" stroke-width=".68" d="M36.61 26.59c.27-5.42 10.55-7.04 13.03-5.25M36.87 33.08c.27-5.39 10.48-6.99 12.93-5.21M37.13 39.57c.27-5.35 10.4-6.94 12.84-5.18"/><path stroke="#000" stroke-linecap="round" stroke-linejoin="round" stroke-width=".48" d="M36.85 19.17c-.05-1.49 11.96-1.63 12.01-.42"/><path stroke="#000" stroke-linecap="round" stroke-linejoin="round" stroke-width=".85" d="M37.8 40.85c-.05-1.49 11.03-1.21 11.07 0M37.8 41.22c-.05 1.49 11.03 1.21 11.07 0"/><path stroke="#000" stroke-linecap="round" stroke-linejoin="round" stroke-width=".44" d="M28.54 7.62c-.12-3.48 27.86-3.8 27.96-.97"/><path stroke="#000" stroke-linecap="round" stroke-linejoin="round" stroke-width=".85" d="M48.86 40.74V16.48l8.87-9.79-.09-2.58c-.11-3.08-30.53-2.73-30.4 1.05l.09 2.58 9.52 9.15.9 23.84"/><path fill="#fff" d="M56.94 12.82s12.8-3.4 30.17 2.95l-.39 3.07-9.83 8.38-3.14 24.54s-6.95 1.82-10.97-1.41l1.91-24.29-8.05-10.24.29-2.99z"/><path stroke="#b3b3b3" stroke-linecap="round" stroke-linejoin="round" stroke-width=".48" d="m73.64 27.2 4.93-8.38M66.53 26.53 62 17.6"/><path stroke="#999" stroke-linecap="round" stroke-linejoin="round" stroke-width=".68" d="M63.46 35.68c.96-5.35 11.36-5.64 13.59-3.55M62.89 42.15c.95-5.31 11.28-5.6 13.49-3.53M62.32 48.63c.95-5.28 11.2-5.56 13.4-3.5"/><path stroke="#000" stroke-linecap="round" stroke-linejoin="round" stroke-width=".48" d="M64.64 28.35c.14-1.48 12.07-.09 11.96 1.11"/><path stroke="#000" stroke-linecap="round" stroke-linejoin="round" stroke-width=".85" d="M62.83 49.98c.14-1.48 11.1.2 10.98 1.41M62.78 50.35c-.24 1.47 10.79 2.6 10.98 1.41"/><path stroke="#000" stroke-linecap="round" stroke-linejoin="round" stroke-width=".44" d="M57.87 15.84c.32-3.47 28.12-.23 27.85 2.59"/><path stroke="#000" stroke-linecap="round" stroke-linejoin="round" stroke-width=".85" d="m73.81 51.28 3.08-24.06 10.04-8.58.24-2.57c.28-3.07-29.93-6.59-30.28-2.82l-.24 2.57 8.28 10.29-2.14 23.76"/><path fill="#fff" d="M.4 5.6S12.38-.07 30.61 3.04l.17 3.09-8.15 10.02 1.35 24.7s-6.5 3.05-11.04.6l-2.52-24.24L.66 8.59.41 5.6z"/><path stroke="#b3b3b3" stroke-linecap="round" stroke-linejoin="round" stroke-width=".48" d="m19.43 16.72 3.33-9.14M12.32 17.34 6.24 9.38"/><path stroke="#999" stroke-linecap="round" stroke-linejoin="round" stroke-width=".68" d="M10.96 26.9c-.02-5.43 10.15-7.6 12.72-5.95M11.57 33.37c-.02-5.39 10.08-7.55 12.63-5.91M12.18 39.84c-.02-5.36 10.01-7.5 12.54-5.87"/><path stroke="#000" stroke-linecap="round" stroke-linejoin="round" stroke-width=".48" d="M10.79 19.48c-.13-1.48 11.86-2.28 11.96-1.07"/><path stroke="#000" stroke-linecap="round" stroke-linejoin="round" stroke-width=".85" d="M12.92 41.08c-.13-1.48 10.95-1.81 11.06-.61M12.94 41.45c.03 1.49 11.08.6 11.06-.61"/><path stroke="#000" stroke-linecap="round" stroke-linejoin="round" stroke-width=".44" d="M1.86 8.4c-.31-3.47 27.61-5.32 27.86-2.49"/><path stroke="#000" stroke-linecap="round" stroke-linejoin="round" stroke-width=".85" d="m23.96 40.36-1.33-24.22 8.32-10.26-.23-2.57C30.44.24.09 2.25.43 6.02l.23 2.57 10.01 8.62 2.2 23.76"/><path fill="#fff" d="M12.75 14.83s12.26-5 30.3-.91v3.09l-8.68 9.56v24.74s-6.66 2.69-11.06 0l-1.19-24.34-9.28-9.14z"/><path stroke="#b3b3b3" stroke-linecap="round" stroke-linejoin="round" stroke-width=".48" d="m31.15 26.97 3.82-8.95M24.01 27.2l-5.63-8.28"/><path stroke="#999" stroke-linecap="round" stroke-linejoin="round" stroke-width=".68" d="M22.13 36.67c.27-5.42 10.55-7.04 13.03-5.25M22.39 43.16c.27-5.39 10.48-6.99 12.93-5.21M22.65 49.66c.27-5.35 10.4-6.94 12.84-5.18"/><path stroke="#000" stroke-linecap="round" stroke-linejoin="round" stroke-width=".48" d="M22.37 29.25c-.05-1.49 11.96-1.63 12.01-.42"/><path stroke="#000" stroke-linecap="round" stroke-linejoin="round" stroke-width=".85" d="M23.32 50.94c-.05-1.49 11.03-1.21 11.07 0M23.32 51.3c-.05 1.49 11.03 1.21 11.07 0"/><path stroke="#000" stroke-linecap="round" stroke-linejoin="round" stroke-width=".44" d="M14.06 17.7c-.12-3.48 27.86-3.8 27.96-.97"/><path stroke="#000" stroke-linecap="round" stroke-linejoin="round" stroke-width=".85" d="M34.37 50.82V26.56l8.87-9.79-.09-2.58c-.11-3.08-30.53-2.73-30.4 1.05l.09 2.58 9.52 9.15.9 23.84"/><path fill="#fff" d="M34.21 13.99s12.26-5 30.3-.91v3.09l-8.68 9.56v24.74s-6.66 2.69-11.06 0l-1.19-24.34-9.28-9.14z"/><path stroke="#b3b3b3" stroke-linecap="round" stroke-linejoin="round" stroke-width=".48" d="m52.6 26.13 3.83-8.94M45.46 26.37l-5.63-8.28"/><path stroke="#999" stroke-linecap="round" stroke-linejoin="round" stroke-width=".68" d="M43.58 35.84c.27-5.42 10.55-7.04 13.03-5.25M43.84 42.33c.27-5.39 10.48-6.99 12.93-5.21M44.1 48.82c.27-5.35 10.4-6.94 12.84-5.18"/><path stroke="#000" stroke-linecap="round" stroke-linejoin="round" stroke-width=".48" d="M43.82 28.42c-.05-1.49 11.96-1.63 12.01-.42"/><path stroke="#000" stroke-linecap="round" stroke-linejoin="round" stroke-width=".85" d="M44.77 50.1c-.05-1.49 11.03-1.21 11.07 0M44.77 50.47c-.05 1.49 11.03 1.21 11.07 0"/><path stroke="#000" stroke-linecap="round" stroke-linejoin="round" stroke-width=".44" d="M35.51 16.87c-.12-3.48 27.86-3.8 27.96-.97"/><path stroke="#000" stroke-linecap="round" stroke-linejoin="round" stroke-width=".85" d="M55.83 49.99V25.73l8.87-9.79-.09-2.58c-.11-3.08-30.53-2.73-30.4 1.05l.09 2.58 9.52 9.15.9 23.84"/></g><defs><clipPath id="a"><path fill="#fff" d="M0 0h87.6v52.74H0z"/></clipPath></defs></svg>

<svg width="88" height="53" viewBox="0 0 88 53" fill="none" xmlns="http://www.w3.org/2000/svg">
<g clip-path="url(#clip0_784_38561)">
<path d="M54.09 2.08001C54.09 2.08001 66.7 -1.96999 84.37 3.49001L84.13 6.57001L74.74 15.43L72.85 40.1C72.85 40.1 66 42.27 61.83 39.25L62.5 14.89L53.94 5.07001L54.08 2.07001L54.09 2.08001Z" fill="white"/>
<path d="M71.49 15.59L75.99 6.97003" stroke="#B3B3B3" stroke-width="0.48" stroke-linecap="round" stroke-linejoin="round"/>
<path d="M64.36 15.28L59.38 6.59003" stroke="#B3B3B3" stroke-width="0.48" stroke-linecap="round" stroke-linejoin="round"/>
<path d="M61.76 24.58C62.45 19.19 72.82 18.37 75.15 20.34" stroke="#999999" stroke-width="0.68" stroke-linecap="round" stroke-linejoin="round"/>
<path d="M61.52 31.07C62.2 25.72 72.5 24.91 74.81 26.86" stroke="#999999" stroke-width="0.68" stroke-linecap="round" stroke-linejoin="round"/>
<path d="M61.28 37.56C61.96 32.24 72.18 31.44 74.48 33.38" stroke="#999999" stroke-width="0.68" stroke-linecap="round" stroke-linejoin="round"/>
<path d="M62.57 17.2C62.63 15.71 74.62 16.49 74.57 17.7" stroke="black" stroke-width="0.48" stroke-linecap="round" stroke-linejoin="round"/>
<path d="M61.86 38.89C61.92 37.4 72.95 38.53 72.9 39.74" stroke="black" stroke-width="0.85" stroke-linecap="round" stroke-linejoin="round"/>
<path d="M61.83 39.26C61.67 40.74 72.74 41.31 72.87 40.11" stroke="black" stroke-width="0.85" stroke-linecap="round" stroke-linejoin="round"/>
<path d="M55.17 5.05002C55.32 1.57002 83.24 3.39002 83.12 6.22002" stroke="black" stroke-width="0.44" stroke-linecap="round" stroke-linejoin="round"/>
<path d="M72.89 39.63L74.75 15.44L84.34 6.36L84.45 3.78C84.58 0.700002 54.22 -1.28 54.06 2.5L53.95 5.08L62.75 14.94L61.82 38.78" stroke="black" stroke-width="0.85" stroke-linecap="round" stroke-linejoin="round"/>
<path d="M27.24 4.73997C27.24 4.73997 39.5 -0.260029 57.54 3.82997V6.91997L48.86 16.48V41.22C48.86 41.22 42.2 43.91 37.8 41.22L36.61 16.88L27.33 7.73997L27.24 4.73997Z" fill="white"/>
<path d="M45.63 16.88L49.45 7.94" stroke="#B3B3B3" stroke-width="0.48" stroke-linecap="round" stroke-linejoin="round"/>
<path d="M38.49 17.12L32.86 8.83997" stroke="#B3B3B3" stroke-width="0.48" stroke-linecap="round" stroke-linejoin="round"/>
<path d="M36.61 26.59C36.88 21.17 47.16 19.55 49.64 21.34" stroke="#999999" stroke-width="0.68" stroke-linecap="round" stroke-linejoin="round"/>
<path d="M36.87 33.08C37.14 27.69 47.35 26.09 49.8 27.87" stroke="#999999" stroke-width="0.68" stroke-linecap="round" stroke-linejoin="round"/>
<path d="M37.13 39.57C37.4 34.22 47.53 32.63 49.97 34.39" stroke="#999999" stroke-width="0.68" stroke-linecap="round" stroke-linejoin="round"/>
<path d="M36.85 19.17C36.8 17.68 48.81 17.54 48.86 18.75" stroke="black" stroke-width="0.48" stroke-linecap="round" stroke-linejoin="round"/>
<path d="M37.8 40.85C37.75 39.36 48.83 39.64 48.87 40.85" stroke="black" stroke-width="0.85" stroke-linecap="round" stroke-linejoin="round"/>
<path d="M37.8 41.22C37.75 42.71 48.83 42.43 48.87 41.22" stroke="black" stroke-width="0.85" stroke-linecap="round" stroke-linejoin="round"/>
<path d="M28.54 7.61999C28.42 4.13999 56.4 3.81999 56.5 6.64999" stroke="black" stroke-width="0.44" stroke-linecap="round" stroke-linejoin="round"/>
<path d="M48.86 40.74V16.48L57.73 6.68999L57.64 4.10999C57.53 1.02999 27.11 1.37999 27.24 5.15999L27.33 7.73999L36.85 16.89L37.75 40.73" stroke="black" stroke-width="0.85" stroke-linecap="round" stroke-linejoin="round"/>
<path d="M56.94 12.82C56.94 12.82 69.74 9.42 87.11 15.77L86.72 18.84L76.89 27.22L73.75 51.76C73.75 51.76 66.8 53.58 62.78 50.35L64.69 26.06L56.64 15.82L56.93 12.83L56.94 12.82Z" fill="white"/>
<path d="M73.64 27.1999L78.57 18.8199" stroke="#B3B3B3" stroke-width="0.48" stroke-linecap="round" stroke-linejoin="round"/>
<path d="M66.53 26.53L62 17.6" stroke="#B3B3B3" stroke-width="0.48" stroke-linecap="round" stroke-linejoin="round"/>
<path d="M63.46 35.68C64.42 30.33 74.82 30.04 77.05 32.13" stroke="#999999" stroke-width="0.68" stroke-linecap="round" stroke-linejoin="round"/>
<path d="M62.89 42.15C63.84 36.84 74.17 36.55 76.38 38.62" stroke="#999999" stroke-width="0.68" stroke-linecap="round" stroke-linejoin="round"/>
<path d="M62.32 48.63C63.27 43.35 73.52 43.07 75.72 45.13" stroke="#999999" stroke-width="0.68" stroke-linecap="round" stroke-linejoin="round"/>
<path d="M64.64 28.35C64.78 26.87 76.71 28.26 76.6 29.46" stroke="black" stroke-width="0.48" stroke-linecap="round" stroke-linejoin="round"/>
<path d="M62.83 49.98C62.97 48.5 73.93 50.18 73.81 51.39" stroke="black" stroke-width="0.85" stroke-linecap="round" stroke-linejoin="round"/>
<path d="M62.78 50.35C62.54 51.82 73.57 52.95 73.76 51.76" stroke="black" stroke-width="0.85" stroke-linecap="round" stroke-linejoin="round"/>
<path d="M57.87 15.84C58.19 12.37 85.99 15.61 85.72 18.43" stroke="black" stroke-width="0.44" stroke-linecap="round" stroke-linejoin="round"/>
<path d="M73.81 51.28L76.89 27.22L86.93 18.64L87.17 16.07C87.45 13 57.24 9.47997 56.89 13.25L56.65 15.82L64.93 26.11L62.79 49.87" stroke="black" stroke-width="0.85" stroke-linecap="round" stroke-linejoin="round"/>
<path d="M0.399994 5.60003C0.399994 5.60003 12.38 -0.0699738 30.61 3.04003L30.78 6.13003L22.63 16.15L23.98 40.85C23.98 40.85 17.48 43.9 12.94 41.45L10.42 17.21L0.659994 8.59003L0.409994 5.60003H0.399994Z" fill="white"/>
<path d="M19.43 16.72L22.76 7.58002" stroke="#B3B3B3" stroke-width="0.48" stroke-linecap="round" stroke-linejoin="round"/>
<path d="M12.32 17.34L6.23999 9.38" stroke="#B3B3B3" stroke-width="0.48" stroke-linecap="round" stroke-linejoin="round"/>
<path d="M10.96 26.9C10.94 21.47 21.11 19.3 23.68 20.95" stroke="#999999" stroke-width="0.68" stroke-linecap="round" stroke-linejoin="round"/>
<path d="M11.57 33.37C11.55 27.98 21.65 25.82 24.2 27.46" stroke="#999999" stroke-width="0.68" stroke-linecap="round" stroke-linejoin="round"/>
<path d="M12.18 39.84C12.16 34.48 22.19 32.34 24.72 33.97" stroke="#999999" stroke-width="0.68" stroke-linecap="round" stroke-linejoin="round"/>
<path d="M10.79 19.48C10.66 18 22.65 17.2 22.75 18.41" stroke="black" stroke-width="0.48" stroke-linecap="round" stroke-linejoin="round"/>
<path d="M12.92 41.08C12.79 39.6 23.87 39.27 23.98 40.47" stroke="black" stroke-width="0.85" stroke-linecap="round" stroke-linejoin="round"/>
<path d="M12.94 41.45C12.97 42.94 24.02 42.05 24 40.84" stroke="black" stroke-width="0.85" stroke-linecap="round" stroke-linejoin="round"/>
<path d="M1.85998 8.40003C1.54998 4.93003 29.47 3.08003 29.72 5.91003" stroke="black" stroke-width="0.44" stroke-linecap="round" stroke-linejoin="round"/>
<path d="M23.96 40.36L22.63 16.14L30.95 5.88002L30.72 3.31002C30.44 0.240021 0.08999 2.25002 0.42999 6.02002L0.65999 8.59002L10.67 17.21L12.87 40.97" stroke="black" stroke-width="0.85" stroke-linecap="round" stroke-linejoin="round"/>
<path d="M12.75 14.83C12.75 14.83 25.01 9.83 43.05 13.92V17.01L34.37 26.57V51.31C34.37 51.31 27.71 54 23.31 51.31L22.12 26.97L12.84 17.83L12.75 14.83Z" fill="white"/>
<path d="M31.15 26.97L34.97 18.02" stroke="#B3B3B3" stroke-width="0.48" stroke-linecap="round" stroke-linejoin="round"/>
<path d="M24.01 27.2L18.38 18.92" stroke="#B3B3B3" stroke-width="0.48" stroke-linecap="round" stroke-linejoin="round"/>
<path d="M22.13 36.67C22.4 31.25 32.68 29.63 35.16 31.42" stroke="#999999" stroke-width="0.68" stroke-linecap="round" stroke-linejoin="round"/>
<path d="M22.39 43.16C22.66 37.77 32.87 36.17 35.32 37.95" stroke="#999999" stroke-width="0.68" stroke-linecap="round" stroke-linejoin="round"/>
<path d="M22.65 49.66C22.92 44.31 33.05 42.72 35.49 44.48" stroke="#999999" stroke-width="0.68" stroke-linecap="round" stroke-linejoin="round"/>
<path d="M22.37 29.25C22.32 27.76 34.33 27.62 34.38 28.83" stroke="black" stroke-width="0.48" stroke-linecap="round" stroke-linejoin="round"/>
<path d="M23.32 50.94C23.27 49.45 34.35 49.73 34.39 50.94" stroke="black" stroke-width="0.85" stroke-linecap="round" stroke-linejoin="round"/>
<path d="M23.32 51.3C23.27 52.79 34.35 52.51 34.39 51.3" stroke="black" stroke-width="0.85" stroke-linecap="round" stroke-linejoin="round"/>
<path d="M14.06 17.7C13.94 14.22 41.92 13.9 42.02 16.73" stroke="black" stroke-width="0.44" stroke-linecap="round" stroke-linejoin="round"/>
<path d="M34.37 50.82V26.56L43.24 16.77L43.15 14.19C43.04 11.11 12.62 11.46 12.75 15.24L12.84 17.82L22.36 26.97L23.26 50.81" stroke="black" stroke-width="0.85" stroke-linecap="round" stroke-linejoin="round"/>
<path d="M34.21 13.99C34.21 13.99 46.47 8.98997 64.51 13.08V16.17L55.83 25.73V50.47C55.83 50.47 49.17 53.16 44.77 50.47L43.58 26.13L34.3 16.99L34.21 13.99Z" fill="white"/>
<path d="M52.6 26.13L56.43 17.19" stroke="#B3B3B3" stroke-width="0.48" stroke-linecap="round" stroke-linejoin="round"/>
<path d="M45.46 26.37L39.83 18.09" stroke="#B3B3B3" stroke-width="0.48" stroke-linecap="round" stroke-linejoin="round"/>
<path d="M43.58 35.84C43.85 30.42 54.13 28.8 56.61 30.59" stroke="#999999" stroke-width="0.68" stroke-linecap="round" stroke-linejoin="round"/>
<path d="M43.84 42.33C44.11 36.94 54.32 35.34 56.77 37.12" stroke="#999999" stroke-width="0.68" stroke-linecap="round" stroke-linejoin="round"/>
<path d="M44.1 48.82C44.37 43.47 54.5 41.88 56.94 43.64" stroke="#999999" stroke-width="0.68" stroke-linecap="round" stroke-linejoin="round"/>
<path d="M43.82 28.42C43.77 26.93 55.78 26.79 55.83 28" stroke="black" stroke-width="0.48" stroke-linecap="round" stroke-linejoin="round"/>
<path d="M44.77 50.1C44.72 48.61 55.8 48.89 55.84 50.1" stroke="black" stroke-width="0.85" stroke-linecap="round" stroke-linejoin="round"/>
<path d="M44.77 50.47C44.72 51.96 55.8 51.68 55.84 50.47" stroke="black" stroke-width="0.85" stroke-linecap="round" stroke-linejoin="round"/>
<path d="M35.51 16.87C35.39 13.39 63.37 13.07 63.47 15.9" stroke="black" stroke-width="0.44" stroke-linecap="round" stroke-linejoin="round"/>
<path d="M55.83 49.99V25.73L64.7 15.94L64.61 13.36C64.5 10.28 34.08 10.63 34.21 14.41L34.3 16.99L43.82 26.14L44.72 49.98" stroke="black" stroke-width="0.85" stroke-linecap="round" stroke-linejoin="round"/>
</g>
<defs>
<clipPath id="clip0_784_38561">
<rect width="87.6" height="52.74" fill="white"/>
</clipPath>
</defs>
</svg>
